mapstyles/mapsforge_peruskartta/mml/SVJPita.svg

<?xml version="1.0" encoding="UTF-8" standalone="no"?>
<!-- Created with Inkscape (http://www.inkscape.org/) -->

<svg
   xmlns:dc="http://purl.org/dc/elements/1.1/"
   xmlns:cc="http://creativecommons.org/ns#"
   xmlns:rdf="http://www.w3.org/1999/02/22-rdf-syntax-ns#"
   xmlns:svg="http://www.w3.org/2000/svg"
   xmlns="http://www.w3.org/2000/svg"
   xmlns:sodipodi="http://sodipodi.sourceforge.net/DTD/sodipodi-0.dtd"
   xmlns:inkscape="http://www.inkscape.org/namespaces/inkscape"
   version="1.1"
   width="481.25"
   height="918.25"
   id="svg2"
   xml:space="preserve"
   inkscape:version="0.48.4 r9939"
   sodipodi:docname="SVJPita.svg"><sodipodi:namedview
     pagecolor="#ffffff"
     bordercolor="#666666"
     borderopacity="1"
     objecttolerance="10"
     gridtolerance="10"
     guidetolerance="10"
     inkscape:pageopacity="0"
     inkscape:pageshadow="2"
     inkscape:window-width="1920"
     inkscape:window-height="1012"
     id="namedview10"
     showgrid="false"
     inkscape:zoom="1.3485026"
     inkscape:cx="511.16667"
     inkscape:cy="736.84807"
     inkscape:window-x="-8"
     inkscape:window-y="-8"
     inkscape:window-maximized="1"
     inkscape:current-layer="svg2" /><metadata
     id="metadata8"><rdf:RDF><cc:Work
         rdf:about=""><dc:format>image/svg+xml</dc:format><dc:type
           rdf:resource="http://purl.org/dc/dcmitype/StillImage" /></cc:Work></rdf:RDF></metadata><defs
     id="defs6" /><g
     id="g3010"
     transform="translate(145.79433,47.330731)"><path
       id="path3012"
       d="m 101.87008,13.6063 44.1496,76.464571 44.14961,76.429139 -88.29921,0 -88.263781,0 44.114173,-76.429139 z"
       style="fill:#000000;fill-opacity:1;fill-rule:nonzero;stroke:#000000;stroke-width:27.17716599px;stroke-linecap:butt;stroke-linejoin:miter;stroke-miterlimit:4;stroke-opacity:1;stroke-dasharray:none"
       inkscape:connector-curvature="0" /></g><g
     transform="matrix(1.25,0,0,-1.25,158.125,992.625)"
     id="g10"><g
       transform="scale(0.1,0.1)"
       id="g12"><path
         d="m -360,720 2150,0 M 1410,720 710,4320 10,720 m 150,50 600,3200 M 810,3570 310,720 m 150,0 400,2400 M 910,2720 610,720 m 150,0 200,1700 M 1110,2020 910,820 m 150,0 100,700 m 100,-350 -50,-350 m -500,3550 0,200"
         inkscape:connector-curvature="0"
         id="path14"
         style="fill:none;stroke:#000000;stroke-width:250;stroke-linecap:butt;stroke-linejoin:miter;stroke-miterlimit:10;stroke-opacity:1;stroke-dasharray:none" /><path
         d="m -360,720 2150,0 M 1410,720 710,4320 10,720 m 150,50 600,3200 M 810,3570 310,720 m 150,0 400,2400 M 910,2720 610,720 m 150,0 200,1700 M 1110,2020 910,820 m 150,0 100,700 m 100,-350 -50,-350 m -500,3550 0,200 -720,1250 1440,0 L 710,4570 710,7173.3747 108.65012,6231.865 1430,6220 858.31265,7185.2397 M 110,6370 l 1200,0 m -100,150 -1000,0 m 100,200 800,0 m -100,200 -600,0 m 150,200 300,0 m -750,-1450 1200,0 m -100,-150 -1000,0 m 100,-200 800,0 m -100,-200 -600,0 m 150,-200 300,0"
         inkscape:connector-curvature="0"
         id="path16"
         style="fill:none;stroke:#000000;stroke-width:200;stroke-linecap:butt;stroke-linejoin:miter;stroke-miterlimit:10;stroke-opacity:1;stroke-dasharray:none"
         sodipodi:nodetypes="cccccccccccccccccccccccccccccccccccccccccccccccccc" /><path
         d="m 2460,6020 c 0,994.11 -805.89,1800 -1800,1800 -994.109,0 -1800,-805.89 -1800,-1800 0,-994.11 805.891,-1800 1800,-1800 994.11,0 1800,805.89 1800,1800"
         inkscape:connector-curvature="0"
         id="path18"
         style="fill:none;stroke:#000000;stroke-width:250;stroke-linecap:butt;stroke-linejoin:miter;stroke-miterlimit:10;stroke-opacity:1;stroke-dasharray:none" /></g></g></svg>

<svg xmlns="http://www.w3.org/2000/svg" xml:space="preserve" width="481.25" height="918.25"><path d="m101.87 13.606 44.15 76.465 44.15 76.429H13.605L57.72 90.07z" style="fill:#000;fill-opacity:1;fill-rule:nonzero;stroke:#000;stroke-width:27.17716599px;stroke-linecap:butt;stroke-linejoin:miter;stroke-miterlimit:4;stroke-opacity:1;stroke-dasharray:none" transform="translate(145.794 47.33)"/><path d="M-360 720h2150m-380 0L710 4320 10 720m150 50 600 3200m50-400L310 720m150 0 400 2400m50-400L610 720m150 0 200 1700m150-400L910 820m150 0 100 700m100-350-50-350M710 4370v200" style="fill:none;stroke:#000;stroke-width:250;stroke-linecap:butt;stroke-linejoin:miter;stroke-miterlimit:10;stroke-opacity:1;stroke-dasharray:none" transform="matrix(.13 0 0 -.13 158.125 992.625)"/><path d="M-360 720h2150m-380 0L710 4320 10 720m150 50 600 3200m50-400L310 720m150 0 400 2400m50-400L610 720m150 0 200 1700m150-400L910 820m150 0 100 700m100-350-50-350M710 4370v200L-10 5820h1440L710 4570v2603.375l-601.35-941.51L1430 6220l-571.687 965.24M110 6370h1200m-100 150H210m100 200h800m-100 200H410m150 200h300M110 5670h1200m-100-150H210m100-200h800m-100-200H410m150-200h300" style="fill:none;stroke:#000;stroke-width:200;stroke-linecap:butt;stroke-linejoin:miter;stroke-miterlimit:10;stroke-opacity:1;stroke-dasharray:none" transform="matrix(.13 0 0 -.13 158.125 992.625)"/><path d="M2460 6020c0 994.11-805.89 1800-1800 1800-994.109 0-1800-805.89-1800-1800s805.891-1800 1800-1800c994.11 0 1800 805.89 1800 1800" style="fill:none;stroke:#000;stroke-width:250;stroke-linecap:butt;stroke-linejoin:miter;stroke-miterlimit:10;stroke-opacity:1;stroke-dasharray:none" transform="matrix(.13 0 0 -.13 158.125 992.625)"/></svg>
